X:10302
T:The Rakes of Kildare
R:Jig
M:6/8
L:1/8
B:Tuneworks Tunebook (https://www.tuneworks.co.uk/) p3
G:tuneworks
Z:Jon Warbrick, jon.warbrick@googlemail.com
K:G
|: G | "Am"EAA AGA | Bcd e2 f | "G"!turn!g3 ege | dBA GFF | 
"Am"EAA AGA | Bcd e2 f | "G"!turn!g3 edB | [1 "Am"A3 A2 :| [2 "Am"A3 A2 a || 
"Am"aea aea | aea b2 a | "G"!turn!g3 ege | dBA G2 a | 
"Am"aea aea | aea b2 a | "G"!turn!g3 edB | "Am"A3 A2 a | 
"Am"aea aea | aea b2 a | "G"!turn!g3 ege | dBA GFG | 
"Am"EAA AGA | Bcd e2 f | "G"!turn!g3 edB | "Am"A3A |]


